X:8
T:How Much Do Those Weigh?
R:reel
C: 1975, 2010 L.E. McCullough 
M:4/4
L:1/8
K:G
|:~B3A ~G3A|(3B^cd ed e~g3|~B3A ~G3E|DEGA (3B^cd ed|
~B3A ~G3A|(3B^cd ed efga|b~g3 e~a3| gfed edBA:|
|:~B3d e~g3|a~g3 bgeg|~B3d edeg|~a3b  aged|
~ B3d e~g3|a~g3 b~g3|bgag e~a3|gfed edBA:|

